assets/img/icons/ui/resend-invitation.svg

<?xml version="1.0" encoding="utf-8"?>
<!-- Generated by IcoMoon.io -->
<!DOCTYPE svg PUBLIC "-//W3C//DTD SVG 1.1//EN" "http://www.w3.org/Graphics/SVG/1.1/DTD/svg11.dtd">
<svg version="1.1" xmlns="http://www.w3.org/2000/svg" xmlns:xlink="http://www.w3.org/1999/xlink" width="32" height="32" viewBox="0 0 32 32">
<path fill="rgb(0, 0, 0)" d="M24 8h-16v-2h16v2zM22 12v-2h-12v2h12zM2 2h28v12h2v-14h-32v20h12v-2h-10v-16zM32 23c0-4.963-4.037-9-9-9s-9 4.037-9 9c0 2.402 0.936 4.663 2.637 6.364l0.141 0.142 1.84-1.841-0.143-0.142c-1.209-1.211-1.875-2.817-1.875-4.523 0-3.53 2.871-6.401 6.4-6.401s6.4 2.871 6.4 6.401c0 1.72-0.703 3.322-1.898 4.502l-3.502-3.502v8h8l-2.666-2.666c1.662-1.652 2.666-3.913 2.666-6.334z"></path>
</svg>

<svg xmlns="http://www.w3.org/2000/svg" width="32" height="32" viewBox="0 0 32 32"><path d="M24 8H8V6h16v2zm-2 4v-2H10v2h12zM2 2h28v12h2V0H0v20h12v-2H2V2zm30 21c0-4.963-4.037-9-9-9s-9 4.037-9 9c0 2.402.936 4.663 2.637 6.364l.141.142 1.84-1.841-.143-.142A6.362 6.362 0 0 1 16.6 23c0-3.53 2.871-6.401 6.4-6.401S29.4 19.47 29.4 23c0 1.72-.703 3.322-1.898 4.502L24 24v8h8l-2.666-2.666C30.996 27.682 32 25.421 32 23z"/></svg>
